X:2289 
T:Myr Walk mish Magh Moghrey
T:Fine as June 
S:W. Corlett, miner, Laxey
C:Traditional
O:Isle of Man
S:W Corlett, miner, Laxey 
Z:Clague collection
B:Kiaull Vannin #289 
M:4/4 
L:1/8 
Q:100 
K:D 
A|d2z d f2z d|ed cd !fermata!e2 de|fe dc BA AB|AF DE F3F| 
A AB AF ED|Dd dd !fermata!d2 de|f2 dA d2 FF|ED DD D3|| 

